X:16
T:Pipe Major John Sabiston
C:James E Stack
B:William Livingstone Volume 1
H:
O:Kevin Fraser
Z:Kevin Fraser
Q:1/4=90
K:HP
M:6/8
L:1/8
R:March
U: R = ///
U: r = //
U: V = !accent!
V:M gstem=up stem=down name="Melody" sname="Melody" 
V:H gstem=up stem=down name="Harmony" sname="Harmony"
V:C gstem=up stem=down name="C-Harmony" sname="C-Harmony"
V:S gstem=up stem=down clef=none dyn=up name="Snare" sname="Snare"
V:B gstem=up stem=down clef=none dyn=up name="Bass" sname="Bass"
V:T gstem=up stem=down clef=none dyn=up name="Tenor" sname="Tenor"
V:BB gstem=up stem=down name="Brass Bass" sname="Bass" transpose=-1  octave=-2 clef=bass
V:BC gstem=up stem=down name="Brass Chord" sname="ABCD-D" transpose=-1
V:BD gstem=up stem=down name="Brass Chord 2" sname="ABCD-B" transpose=-1
V:P gstem=up stem=down name="Piano" sname="Piano" transpose=0 octave=-1
I:MIDI=program 110
%%MIDI gracedivider 40
% %score {M BC BD BB}
% %MIDI program 109 #bagpipes
%%MIDI vol 100
[V:M] [: a | f2{GdG}f {gfg}f>ed |  {g}B2{GdGe}B {gBd}B2{Gdc}d | {g}c2{GdG}e {gef}e>d{e}c | {g}df>{g}e {Gdc}d2a | 
[V:M]      | f2{GdG}f {gfg}f>ed |  {g}B2{GdGe}B {gBd}B2{Gdc}d | {g}c2{GdG}e {g}A>fd | {gef}e>dc {Gdc}d2 :]
[V:M] [: a | {Gdc}d>{g}Ad {g}df>d | {g}G>{d}B{e}A {gGd}G2d |  {g}c2{GdG}e {gef}e>d{e}c | {g}df>{g}e {Gdc}d2a | 
[V:M]      | {Gdc}d>{g}Ad {g}df>d | {g}G>{d}B{e}A {gGd}G2d | {g}c2{GdG}e {g}A>fd | {gef}e>dc {Gdc}d2 :]
[V:M] [:  f |{g}d2{GBG}A {g}A>{d}ca |B2{GdGe}B {gBd}B>AG |  {g}c2{GdG}e {gef}e>d{e}c | {g}df>{g}e {Gdc}d2f | 
[V:M]      | {g}d2{GBG}A {g}A>{d}ca |B2{GdGe}B {gBd}B>AG| {g}c2{GdG}e {g}A>fd | {gef}e>dc {Gdc}d2 :]
[V:M] [: a  |{fg}f>{g}da {g}a2{GdG}a | {ef}e>{g}cg {a}g2{GdG}g |  {Gdc}d>{g}Bd {g}d2{GBG}A |{g}B>cd {gef}e2a |
[V:M]      | {fg}f>{g}da {g}a2{GdG}a | {ef}e>{g}cg {a}g2{GdG}g| {g}c2{GdG}e {g}A>fd | {gef}e>dc {Gdc}d2 :]

